X: 1375
T: The Dancing Dustman
B: australian traditional tunes wiki
M:6/8
L:1/8
R: Jig
Q: 3/8=100
K:G
V:1 
d2dd2d|e2dB3|A2A B2A|E6|F2EF2A|f2ec3|Bcde2B|d6|
bagd2d|e2dB3|A2A B2A|E6|ABcf2e|d2cA3|DEFB2A|G3-G3||
|:G2G GAB|A2Gd3|e2A ABc|B2Ae3|f2A ABc|1
f3 fgf|e2G GAB|e2Bd3:|2f3f2e|fed cBA|G3G3||
|:D2DE2D|B,2DG2B|A2AB2A|E6|F2EF2G|1
F2GA3|ABce2B|d6:|2f2ec2A|DEFB2A|G6||
% abcbook-tune_id 6342d53a15a0396e204ad5f8


% abcbook-boost 0
% abcbook-tablature 
% abcbook-transpose 
% abcbook-lastupdated 1665324361843
% abcbook-soundfonts 
% abcbook-repeats 1
% NFF Book 2007

